outputs/icons/maps/local_shipping_round.svg

<svg xmlns="http://www.w3.org/2000/svg" width="1200" height="1200" fill="none"><g clip-path="url(#a)"><path fill="#000" d="M975 400H850V300c0-55-45-100-100-100H150c-55 0-100 45-100 100v450c0 55 45 100 100 100 0 83 67 150 150 150s150-67 150-150h300c0 83 67 150 150 150s150-67 150-150h50c27.5 0 50-22.5 50-50V633.5c0-21.5-7-42.5-20-60L1015 420c-9.5-12.5-24.5-20-40-20M300 900c-27.5 0-50-22.5-50-50s22.5-50 50-50 50 22.5 50 50-22.5 50-50 50m675-425 98 125H850V475zm-75 425c-27.5 0-50-22.5-50-50s22.5-50 50-50 50 22.5 50 50-22.5 50-50 50"/></g><defs><clipPath id="a"><path fill="#fff" d="M0 0h1200v1200H0z"/></clipPath></defs></svg>

<svg width="1200" height="1200" viewBox="0 0 1200 1200" fill="none" xmlns="http://www.w3.org/2000/svg"><g clip-path="url(#clip0_238_1715)"><path d="M975 400H850V300C850 245 805 200 750 200H150C95 200 50 245 50 300V750C50 805 95 850 150 850C150 933 217 1000 300 1000C383 1000 450 933 450 850H750C750 933 817 1000 900 1000C983 1000 1050 933 1050 850H1100C1127.5 850 1150 827.5 1150 800V633.5C1150 612 1143 591 1130 573.5L1015 420C1005.5 407.5 990.5 400 975 400ZM300 900C272.5 900 250 877.5 250 850C250 822.5 272.5 800 300 800C327.5 800 350 822.5 350 850C350 877.5 327.5 900 300 900ZM975 475L1073 600H850V475H975ZM900 900C872.5 900 850 877.5 850 850C850 822.5 872.5 800 900 800C927.5 800 950 822.5 950 850C950 877.5 927.5 900 900 900Z" fill="black"/></g><defs><clipPath id="clip0_238_1715"><path width="24" fill="white" d="M0 0H1200V1200H0V0z"/></clipPath></defs></svg>
